X:1
Q:1/4=65
L:1/8
M:2/4
K:C clef=G2
V:1
%%MIDI program 73
f15/8e15/8|fz/2g15/32a15/16g15/16|a15/16g15/16f15/8|c2-c31/32c31/32|
d15/16e31/32fz/2g15/32|a2-a15/16g3/4^a31/128|a15/16^g15/16a15/8|z^a31/32f31/32^a15/16|
c'31/64d'31/64b31/64d'15/32c'15/16^a15/16|a2-a3/8z/8g31/64f31/64g31/64|a15/16^a15/16c'15/16^c'31/32|d'15/16^a15/16a15/16g15/16|
a15/16g15/16f15/8|za31/64g31/64a31/64c'31/64a31/64g31/64|f15/16e31/64g31/64f2-|f7/8z/8a31/32c'31/32f'31/32|
g'15/16f'15/16e'15/16d'15/16|c'z/2d'15/32e'15/16f'15/16|e'31/16d'31/16|c'31/32zc'31/16|
f'31/16c'31/16|d'15/8a'31/32g'15/16|f'31/32e'15/16f'31/32e'15/16|d'15/16zf'31/32z|
^az/2a15/32^a15/16c'15/16|d'z/2f'15/32d'15/16c'15/16|^az/2c'15/32^a15/16a15/16|g62/16|
az/2c'15/32a15/16g15/16|f3/4z/4a31/64g31/64a31/64c'31/64a31/64g31/64|f15/16e31/64g31/64f2-|f7/8z/8a31/32c'31/32f'31/32|
L:1/8
M:2/4
K:C clef=G2
V:2
%%MIDI program 68
f31/16e31/16|fz/2g31/64a31/32g31/32|a31/32g31/32f31/16|c2-c31/32c31/32|
d31/32e31/32fz/2g31/64|a2-a31/32g3/4^a31/128|a31/32^g31/32a31/16|z^a31/32f31/32^a31/32|
c'31/64d'31/64b31/64d'31/64c'31/32^a31/32|a2-a31/64g31/64f31/64g31/64|a31/32^a31/32c'31/32^c'31/32|d'31/32^a31/32a31/32g31/32|
a31/32g31/32f31/16|za31/64g31/64a31/64c'31/64a31/64g31/64|f31/32e31/64g31/64f2-|f31/32a31/32c'31/32f31/32|
g31/32f31/32e31/32d31/32|cz/2d31/64e31/32f31/32|e31/16d31/16|c31/32zc31/16|
f31/16c31/16|d31/16a31/32g31/32|f31/32e31/32f31/32e31/32|d31/32zf31/32z|
^Az/2A31/64^A31/32c31/32|dz/2f31/64d31/32c31/32|^Az/2c31/64^A31/32A31/32|G62/16|
az/2c'31/64a31/32g31/32|f3/4z/4a31/64g31/64a31/64c'31/64a31/64g31/64|f31/32e31/64g31/64f2-|f31/32a31/32c'31/32f31/32|
L:1/8
M:2/4
K:C clef=G2
V:3
%%MIDI program 71
f31/16e31/16|fz/2g31/64a31/32g31/32|a31/32g31/32f31/16|c2-c31/32c31/32|
d31/32e31/32fz/2g31/64|a2-a31/32g3/4^a31/128|a31/32^g31/32a31/16|z^a31/32f31/32^a31/32|
c'31/64d'31/64b31/64d'31/64c'31/32^a31/32|a2-a31/64g31/64f31/64g31/64|a31/32^a31/32c'31/32^c'31/32|d'31/32^a31/32a31/32g31/32|
a31/32g31/32f31/16|za31/64g31/64a31/64c'31/64a31/64g31/64|f31/32e31/64g31/64f2-|f31/32a31/32c'31/32f'31/32|
g'31/32f'31/32e'31/32d'31/32|c'z/2d'31/64e'31/32f'31/32|e'31/16d'31/16|c'31/32zc'31/16|
f'31/16c'31/16|d'31/16a'31/32g'31/32|f'31/32e'31/32f'31/32e'31/32|d'31/32zf'31/32z|
^az/2a31/64^a31/32c'31/32|d'z/2f'31/64d'31/32c'31/32|^az/2c'31/64^a31/32a31/32|g62/16|
az/2c'31/64a31/32g31/32|f3/4z/4a31/64g31/64a31/64c'31/64a31/64g31/64|f31/32e31/64g31/64f2-|f31/32a31/32c'31/32f31/32|
L:1/8
M:2/4
K:C clef=G2
V:4
%%MIDI program 71
f31/16e31/16|fz/2g31/64a31/32g31/32|a31/32g31/32f31/16|c2-c31/32c31/32|
d31/32e31/32fz/2g31/64|a2-a31/32g3/4^a31/128|a31/32^g31/32a31/16|z^a31/32f31/32^a31/32|
c'31/64d'31/64b31/64d'31/64c'31/32^a31/32|a2-a31/64g31/64f31/64g31/64|a31/32^a31/32c'31/32^c'31/32|d'31/32^a31/32a31/32g31/32|
a31/32g31/32f31/16|za31/64g31/64a31/64c'31/64a31/64g31/64|f31/32e31/64g31/64f2-|f31/32a31/32c'31/32f'31/32|
g'31/32f'31/32e'31/32d'31/32|c'z/2d'31/64e'31/32f'31/32|e'31/16d'31/16|c'31/32zc'31/16|
f'31/16c'31/16|d'31/16a31/32g31/32|f31/32e31/32f31/32e31/32|d31/32zf31/32z|
^az/2a31/64^a31/32c'31/32|d'z/2f'31/64d'31/32c'31/32|^az/2c'31/64^a31/32a31/32|g62/16|
az/2c'31/64a31/32g31/32|f3/4z/4a31/64g31/64a31/64c'31/64a31/64g31/64|f31/32e31/64g31/64f2-|f31/32a31/32c'31/32f31/32|
L:1/8
M:2/4
K:C clef=G2
V:5
%%MIDI program 71
C31/16C31/16|Cz/2C31/64C31/32C31/32|C31/32C31/32C31/16|C2-C31/32C31/32|
D31/32C2-C31/64C31/64|F2-F31/32E3/4F/4-|F31/32F31/32F31/16|zF31/32D31/32F31/32|
F31/32F31/16E31/32|F2-F31/32F31/32|F31/32F31/16G31/32|F31/32G31/32F31/32F31/32|
E31/32E31/32F31/16|F31/32z2z|z4|F31/32F31/32A31/32A31/32|
G31/32A31/32G31/32G31/32|Gz/2G31/64G31/32G31/32|F31/16F31/16|E31/32zG31/16|
A31/16A31/16|F31/32D31/32^C31/32^C31/32|^C31/16^C31/16|C31/32zC31/32z|
F2-F31/32F31/32|F2-F31/32D31/32|D2-D31/32F31/32|E62/16|
F31/16E31/16|F3/4z2zz/4|z4|F31/32F31/32A31/32F31/32|
L:1/8
M:2/4
K:C clef=F4
V:6
%%MIDI program 71
A,31/16C31/16|A,z/2^A,31/64C31/32C31/32|C31/32^A,31/32A,31/16|C2-C31/32C31/32|
D31/32C2-C31/64C31/64|C2-C31/32C31/32|C31/32B,31/32C31/16|z^A,31/32D31/32^A,31/32|
C31/32B,31/32C31/32C31/32|C2-C31/32C31/32|C31/32C31/16E31/32|F31/32D31/32D31/32D31/32|
C31/32^A,31/32A,31/16|A,31/32z2z|z4|A,31/32F31/32A31/32C31/32|
C31/32C31/32C31/32B,31/32|Cz/2C31/64C31/32C31/32|C31/16B,31/16|C31/32zG31/16|
A31/16A31/16|D31/32D31/32E31/32E31/32|A,31/16A,31/16|A,31/32zA,31/32z|
^A,2-^A,31/32C31/32|D2-D31/32C31/32|^A,2-^A,31/32C31/32|C62/16|
C31/16C31/16|A,3/4z2zz/4|z4|A,31/32F31/32A31/32C31/32|
L:1/8
M:2/4
K:C clef=F4
V:7
%%MIDI program 70
F,31/16F,31/16|F,2-F,31/32F,31/32|C31/32C31/32F,31/16|A,2-A,31/32A,31/32|
^A,31/32G,31/32A,z/2G,31/64|F,2-F,31/32^A,31/32|F,31/32F,31/32F,31/16|^A,2-^A,31/32D,31/32|
F,2-F,31/32C,31/32|F,2-F,31/32z|F,2-F,31/32E,31/32|D,31/32G,,31/32A,,31/32^A,,31/32|
C,31/32C,31/32F,31/64C,31/64D,31/64E,31/64|F,2-F,31/32z|F,31/32F,z/2C,31/64D,31/64E,31/64|F,2-F,31/32F,31/32|
E,31/32F,31/32G,31/32G,,31/32|C,31/16^A,,31/32A,,31/32|G,,31/16G,,31/16|C,31/32z^A,,31/16|
A,,31/16F,,31/16|^A,,31/16A,,31/32A,,31/32|A,,31/16A,,31/16|D,31/32zF,,31/32z|
D,2-D,31/32C,31/32|^A,,2-^A,,31/32^F,,31/32|G,,2-G,,31/32F,,31/32|C,31/32C,31/32E,31/32E,31/32|
F,31/16F,31/16|F,2-F,31/32z|F,31/32F,z/2C,31/64D,31/64E,31/64|F,2-F,31/32F,31/32|
L:1/8
M:2/4
K:C clef=G2
V:8
%%MIDI program 65
F31/16E31/16|Fz/2G31/64A31/32G31/32|A31/32G31/32F31/16|C2-C31/32C31/32|
D31/32E31/32Fz/2G31/64|A2-A31/32G3/4^A31/128|A31/32^G31/32A31/16|z^A31/32F31/32^A31/32|
c31/64d31/64B31/64d31/64c31/32^A31/32|A2-A31/64G31/64F31/64G31/64|A31/32^A31/32c31/32^c31/32|d31/32^A31/32A31/32G31/32|
A31/32G31/32F31/16|zA31/64G31/64A31/64c31/64A31/64G31/64|F31/32E31/64G31/64F2-|F31/32A31/32c31/32F31/32|
G31/32F31/32E31/32D31/32|Cz/2D31/64E31/32F31/32|E31/16D31/16|C31/32zC31/16|
F31/16C31/16|D31/16A31/32G31/32|F31/32E31/32F31/32E31/32|D31/32zF31/32z|
^A,z/2A,31/64^A,31/32C31/32|Dz/2F31/64D31/32C31/32|^A,z/2C31/64^A,31/32A,31/32|G,62/16|
Az/2c31/64A31/32G31/32|F3/4z/4A31/64G31/64A31/64c31/64A31/64G31/64|F31/32E31/64G31/64F2-|F31/32A31/32c31/32F31/32|
L:1/8
M:2/4
K:C clef=F4
V:9
%%MIDI program 66
F31/16E31/16|Fz/2G31/64A31/32G31/32|A31/32G31/32F31/16|C2-C31/32C31/32|
D31/32E31/32Fz/2G31/64|F2-F31/32E31/32|F31/32F31/32F31/16|z^A,31/32F,31/32^A,31/32|
C31/64D31/64B,31/64D31/64C31/32^A,31/32|A,2-A,31/64G,31/64F,31/64G,31/64|A,31/32^A,31/32C31/32^C31/32|D31/32^A,31/32A,31/32G,31/32|
A,31/32A,31/32A,31/16|F,31/32A,31/32C31/32F-|F31/32E31/64G31/64F2-|F31/32A,31/32C31/32F31/32|
G31/32F31/32E31/32D31/32|Cz/2D31/64E31/32F31/32|E31/16D31/16|C31/32zC31/16|
F31/16C31/16|D31/16A31/32G31/32|F31/32E31/32F31/32E31/32|D31/32zF31/32z|
^A,z/2A,31/64^A,31/32C31/32|D2-D31/32C31/32|^A,2-^A,31/32C31/32|G,62/16|
D31/16C31/16|F3/4z/4F,31/32A,31/32C31/32|F31/32E31/64G31/64F2-|F31/32A,31/32C31/32F31/32|
L:1/8
M:2/4
K:C clef=G2
V:10
%%MIDI program 60
F31/16E31/16|F31/16F31/32G31/32|E31/32E31/32F31/16|F2-F31/32E31/32|
D31/32E31/32Fz/2D31/64|F2-F31/32E31/32|F31/32F31/32F31/16|F31/32F31/16F31/32|
F31/32F31/16E31/32|F31/32F31/16F31/32|F31/32F31/16G31/32|F31/32G31/32F31/32F31/32|
E31/32E31/32F31/16|F31/32F31/16F31/32|F31/32E31/32F31/16|F31/32F31/16F31/32|
G31/32F31/32E31/32F31/32|E31/16G31/32F31/32|F31/16F31/16|E31/32zE31/16|
F31/16G31/16|F31/32D31/32E31/32E31/32|F31/32E31/32F31/32E31/32|D31/32zF31/32z|
F2-F31/32F31/32|F2-F31/32D31/32|D2-D31/32F31/32|E31/32E31/16G31/32|
F31/16E31/16|F31/32F31/16F31/32|F31/32E31/32F31/16|F31/32F31/16F31/32|
L:1/8
M:2/4
K:C clef=F4
V:11
%%MIDI program 60
A,31/16^A,31/16|A,31/16A,31/32^A,31/32|^A,31/32^A,31/32A,31/16|A,2-A,31/32C31/32|
^A,31/32^A,31/32A,z/2^A,31/64|A,2-A,31/32G,31/32|A,31/32^G,31/32A,31/16|^A,31/32^A,31/16^A,31/32|
A,31/32^G,31/32A,31/32A,31/32|A,31/32A,31/16A,31/32|A,31/32A,31/16A,-|A,31/32^A,31/32A,31/32G,31/32|
^A,31/32^A,31/32^A,31/16|A,31/32A,31/16A,31/32|A,31/32^A,31/32A,31/16|A,31/32A,31/16A,31/32|
G,31/32A,31/32G,31/32F,31/32|G,31/16G,31/32A,31/32|C31/16^C31/16|C31/32zG,31/16|
A,31/16A,31/16|F,31/32F,31/32A,31/32A,31/32|A,31/16A,31/16|F,31/32zA,31/32z|
^A,2-^A,31/32A,31/32|^A,2-^A,31/32A,31/32|^A,2-^A,31/32D31/32|C31/32C31/16C31/32|
C31/16^A,31/16|A,31/32A,31/16A,31/32|A,31/32^A,31/32A,31/16|A,31/32A,31/16A,31/32|
L:1/8
M:2/4
K:C clef=F4
V:12
%%MIDI program 60
C31/16C31/16|C31/16C31/32C31/32|C31/32C31/32C31/16|C2-C31/32C31/32|
D31/32C31/32Cz/2C31/64|C2-C31/32C31/32|C31/32B,31/32C31/16|D31/32D31/16D31/32|
C31/32D31/32C31/32C31/32|C2-C31/32C31/32|C31/32C31/16^C31/32|D31/32D31/32D31/32D31/32|
C31/32C31/32C31/16|C31/32C31/16C31/32|C31/32C31/32C31/16|C31/32C31/16C31/32|
C31/32C31/32C31/32B,31/32|C31/16C31/32C31/32|C31/16D31/16|C31/32zC31/16|
C31/16C31/16|D31/32D31/32^C31/32^C31/32|^C31/16^C31/16|D31/32zC31/32z|
^A,2-^A,31/32C31/32|D2-D31/32C31/32|^A,2-^A,31/32A,31/32|G,31/32C31/16C31/32|
C31/16C31/16|C31/32C31/16C31/32|C31/32C31/32C31/16|C31/32C31/16C31/32|
L:1/8
M:2/4
K:C clef=G2
V:13
%%MIDI program 56
F31/16E31/16|Fz/2G31/64A31/32G31/32|A31/32G31/32F31/16|C2-C31/32C31/32|
D31/32E31/32Fz/2G31/64|A2-A31/32G3/4^A31/128|A31/32^G31/32A31/16|z^A31/32F31/32^A31/32|
c31/64d31/64B31/64d31/64c31/32^A31/32|A2-A31/64G31/64F31/64G31/64|A31/32^A31/32c31/32^c31/32|d31/32^A31/32A31/32G31/32|
A31/32G31/32F31/16|zA31/64G31/64A31/64c31/64A31/64G31/64|F31/32E31/64G31/64F2-|F31/32A31/32c31/32f31/32|
g31/32f31/32e31/32d31/32|cz/2d31/64e31/32f31/32|e31/16d31/16|c31/32zc31/16|
f31/16c31/16|d31/16a31/32g31/32|f31/32e31/32f31/32e31/32|d31/32zf31/32z|
^Az/2A31/64^A31/32c31/32|dz/2f31/64d31/32c31/32|^Az/2c31/64^A31/32A31/32|G62/16|
Az/2c31/64A31/32G31/32|F3/4z/4A31/64G31/64A31/64c31/64A31/64G31/64|F31/32E31/64G31/64F2-|F31/32A31/32c31/32f31/32|
L:1/8
M:2/4
K:C clef=F4
V:14
%%MIDI program 56
C31/16C31/16|Cz/2C31/64C31/32C31/32|C31/32C31/32C31/16|C2-C31/32C31/32|
D31/32C31/32Cz/2C31/64|F2-F31/32C31/32|C31/32B,31/32C31/16|z^A,31/32D31/32^A,31/32|
C31/32B,31/32C31/32C31/32|C2-C31/32C31/32|C31/32C31/16E31/32|F31/32D31/32D31/32D31/32|
C31/32^A,31/32A,31/16|A,31/32z2z|z4|A,31/32F31/32A31/32C31/32|
C31/32C31/32C31/32B,31/32|Cz/2C31/64C31/32C31/32|C31/16B,31/16|C31/32zG31/16|
A31/16A31/16|D31/32D31/32E31/32E31/32|A,31/16A,31/16|A,31/32zA,31/32z|
^A,2-^A,31/32C31/32|D2-D31/32C31/32|^A,2-^A,31/32C31/32|C62/16|
C31/16C31/16|A,3/4z2zz/4|z4|A,31/32F31/32A31/32C31/32|
L:1/8
M:2/4
K:C clef=F4
V:15
%%MIDI program 57
C31/16C31/16|C31/32C31/32C31/32C31/32|C31/32C31/32C31/16|C2-C31/32C31/32|
D31/32C31/32Cz/2C31/64|C2-C31/32C31/32|C31/32B,31/32C31/16|D31/32D31/16D31/32|
C31/32D31/32C31/32C31/32|C31/32C31/16C31/32|C31/32C31/16^C31/32|D31/32D31/32D31/32D31/32|
C31/32C31/32C31/16|C31/32C31/16C31/32|C31/32C31/32C31/16|C31/32C31/16C31/32|
C31/32C31/32C31/32^A,31/32|C31/16C31/32C31/32|C31/16D31/16|C31/32z^A,31/16|
A,31/16F,31/16|^A,31/16A,31/32A,31/32|A,31/16A,31/16|D31/32zF,31/32z|
D2-D31/32C31/32|^A,2-^A,31/32^F31/32|G2-G31/32F31/32|C31/32C31/32E31/32E31/32|
F31/16F31/16|F2-F31/32z|F31/32Fz/2C31/64D31/64E31/64|F2-F31/32F31/32|
L:1/8
M:2/4
K:C clef=F4
V:16
%%MIDI program 57
F,31/16F,31/16|F,31/16F,31/32F,31/32|C,31/32C,31/32F,31/16|A,2-A,31/32A,31/32|
^A,31/32G,31/32A,z/2G,31/64|F,2-F,31/32C,31/32|F,31/32F,31/32F,31/16|D,31/32D,31/16D,31/32|
C,31/32D,31/32C,31/32C,31/32|F,31/32F,31/16F,31/32|F,31/32F,31/16E,31/32|D,31/32D,31/32D,31/32D,31/32|
C,31/32C,31/32C,31/16|F,31/32F,31/16F,31/32|F,31/32F,31/32F,31/16|F,31/32F,31/16F,31/32|
E,31/32F,31/32G,31/32G,31/32|C,31/16^A,31/32A,31/32|G,31/16G,31/16|C31/32z^A,31/16|
A,31/16F,31/16|^A,31/16A,31/32A,31/32|A,31/16A,31/16|D31/32zF,31/32z|
D2-D31/32C31/32|^A,2-^A,31/32^F,31/32|G,2-G,31/32F,31/32|C,31/32C,31/32E,31/32E,31/32|
F,31/16F,31/16|F,2-F,31/32z|F,31/32F,z/2C,31/64D,31/64E,31/64|F,2-F,31/32F,31/32|
L:1/8
M:2/4
K:C clef=F4
V:17
%%MIDI program 58
F,31/16F,31/16|F,31/16F,31/32F,31/32|C,31/32C,31/32F,31/16|A,,2-A,,31/32A,31/32|
^A,31/32G,31/32A,z/2G,31/64|F,2-F,31/32C,31/32|F,31/32F,31/32F,31/16|^A,,2-^A,,31/32D,31/32|
F,2-F,31/32C,31/32|F,2-F,31/32z|F,2-F,31/32E,31/32|D,31/32G,,31/32A,,31/32^A,,31/32|
C,31/32C,31/32F,31/64C,31/64D,31/64E,31/64|F,2-F,31/32z|F,31/32F,z/2C,31/64D,31/64E,31/64|F,2-F,31/32F,31/32|
E,31/32F,31/32G,31/32G,31/32|C,31/16^A,31/32A,31/32|G,31/16G,31/16|C31/32z^A,31/16|
A,31/16F,31/16|^A,31/16A,31/32A,31/32|A,31/16A,31/16|D,31/32zF,31/32z|
D,2-D,31/32C,31/32|^A,,2-^A,,31/32^F,31/32|G,2-G,31/32F,31/32|C,31/32C,31/32E,31/32E,31/32|
F,31/16F,31/16|F,2-F,31/32z|F,31/32F,z/2C,31/64D,31/64E,31/64|F,2-F,31/32F,31/32|
L:1/8
M:2/4
K:C clef=F4
V:18
%%MIDI program 58
F,,31/16F,,31/16|F,,31/16F,,31/32F,,31/32|C,,31/32C,,31/32F,,31/16|A,,2-A,,31/32A,,31/32|
^A,,31/32G,,31/32A,,z/2G,,31/64|F,,2-F,,31/32C,,31/32|F,,31/32F,,31/32F,,31/16|^A,,,2-^A,,,31/32D,,31/32|
F,,2-F,,31/32C,,31/32|F,,2-F,,31/32z|F,,2-F,,31/32E,,31/32|D,,31/32G,,31/32A,,31/32^A,,31/32|
C,31/32C,31/32F,,31/64C,,31/64D,,31/64E,,31/64|F,,2-F,,31/32z|F,,31/32F,,z/2C,,31/64D,,31/64E,,31/64|F,,2-F,,31/32F,,31/32|
E,,31/32F,,31/32G,,31/32G,,31/32|C,31/16^A,,31/32A,,31/32|G,,31/16G,,31/16|C,,31/32z^A,,31/16|
A,,31/16F,,31/16|^A,,31/16A,,31/32A,,31/32|A,,31/16A,,31/16|D,31/32zF,,31/32z|
D,2-D,31/32C,31/32|^A,,2-^A,,31/32^F,,31/32|G,,2-G,,31/32F,,31/32|C,,31/32C,,31/32E,,31/32E,,31/32|
F,,31/16F,,31/16|F,,2-F,,31/32z|F,,31/32F,,z/2C,,31/64D,,31/64E,,31/64|F,,2-F,,31/32F,,31/32|
L:1/8
M:2/4
K:C clef=F4
V:19
%%MIDI program 48
D,,31/128D,,31/128D,,31/128D,,31/128D,,31/128D,,31/128D,,31/128D,,31/128D,,31/128D,,31/128D,,31/128D,,31/128D,,31/128D,,31/128D,,31/128D,,/4-|D,,z/2D,,31/64D,,31/32D,,31/32|D,,31/32D,,31/32D,,31/16|D,,31/128D,,31/128D,,31/128D,,31/128D,,31/128D,,31/128D,,31/128D,,z/4D,,31/32|
D,,31/32D,,31/32D,,z/2D,,31/64|D,,31/128D,,31/128D,,31/128D,,31/128D,,31/128D,,31/128D,,31/128D,,31/128D,,31/32D,,31/32|D,,31/32D,,31/32D,,31/16|zD,,31/32zD,,31/32|
D,,31/128D,,31/128D,,31/128D,,31/128D,,31/128D,,31/128D,,31/128D,,31/128D,,31/32D,,31/32|D,,31/128D,,31/128D,,31/128D,,31/128D,,31/128D,,31/128D,,31/128D,,3/4D,,31/64D,,31/64D,,31/64|D,,31/32D,,31/32D,,31/32D,,31/32|D,,31/32D,,31/32D,,31/32D,,31/32|
D,,31/32D,,31/32D,,31/128D,,31/128D,,31/128D,,31/128D,,31/128D,,31/128D,,31/128D,,31/128|D,,31/32D,,31/64D,,31/64D,,31/64D,,31/64D,,31/64D,,31/64|D,,31/32D,,31/64D,,31/64D,,31/64D,,31/64D,,31/64D,,31/64|D,,31/32D,,31/32D,,31/32D,,31/32|
D,,31/128D,,31/128D,,31/128D,,31/128D,,31/128D,,31/128D,,31/128D,,31/128D,,31/128D,,31/128D,,31/128D,,31/128D,,31/128D,,31/128D,,31/128D,,/4-|D,,z/2D,,31/64D,,31/32D,,31/32|D,,31/128D,,31/128D,,31/128D,,31/128D,,31/128D,,31/128D,,31/128D,,31/128D,,31/128D,,31/128D,,31/128D,,31/128D,,31/128D,,31/128D,,31/128D,,/4-|D,,31/32zD,,31/16|
D,,31/16D,,31/16|D,,31/128D,,31/128D,,31/128D,,31/128D,,31/128D,,31/128D,,31/128D,,z/4D,,31/32|D,,31/32D,,31/32D,,31/32D,,31/32|D,,31/32zD,,15/16z|
D,,z/2D,,31/64D,,31/32D,,31/32|D,,z/2D,,31/64D,,31/32D,,31/32|D,,z/2D,,31/64D,,31/32D,,31/32|D,,31/128D,,31/128D,,31/128D,,31/128D,,31/128D,,31/128D,,31/128D,,31/128D,,31/128D,,31/128D,,31/128D,,31/128D,,31/128D,,31/128D,,31/128D,,31/128|
D,,z/2D,,31/64D,,z/2D,,31/64|D,,31/32D,,31/64D,,31/64D,,31/64D,,31/64D,,31/64D,,31/64|D,,31/32D,,31/64D,,31/64D,,31/128D,,31/128D,,31/128D,,31/128D,,31/128D,,31/128D,,31/128D,,/4-|D,,31/32D,,31/32D,,31/32D,,31/32|
L:1/8
M:2/4
K:C clef=F4
V:20
%%MIDI program 48
B,,,31/16B,,,31/16|B,,,31/16z2|B,,,31/16z2|B,,,31/16z2|
B,,,31/16z2|B,,,31/16z2|B,,,31/16z2|B,,,31/16z2|
B,,,31/16z2|B,,,31/16z2|B,,,31/16B,,,31/16|B,,,31/16B,,,31/16|
B,,,31/16B,,,31/16|B,,,31/16z2|B,,,31/16z2|B,,,31/16z2|
B,,,31/16z2|B,,,31/16z2|B,,,31/16B,,,31/16|B,,,31/16z2|
B,,,31/16z2|B,,,31/16z2|B,,,31/16z2|B,,,31/32zB,,,31/32z|
B,,,62/16|B,,,62/16|B,,,62/16|B,,,62/16|
B,,,31/16z2|B,,,31/16z2|B,,,31/16z2|B,,,31/16z2|
Q:1/4=65
L:1/8
M:2/4
K:C clef=G2
V:1
%%MIDI program 73
g'15/16
L:1/8
M:2/4
K:C clef=G2
V:2
%%MIDI program 68
g31/32
L:1/8
M:2/4
K:C clef=G2
V:3
%%MIDI program 71
g31/32
L:1/8
M:2/4
K:C clef=G2
V:4
%%MIDI program 71
g31/32
L:1/8
M:2/4
K:C clef=G2
V:5
%%MIDI program 71
G31/32
L:1/8
M:2/4
K:C clef=F4
V:6
%%MIDI program 71
C31/32
L:1/8
M:2/4
K:C clef=F4
V:7
%%MIDI program 70
E,31/32
L:1/8
M:2/4
K:C clef=G2
V:8
%%MIDI program 65
G31/32
L:1/8
M:2/4
K:C clef=G2
V:9
%%MIDI program 66
G31/32
L:1/8
M:2/4
K:C clef=G2
V:10
%%MIDI program 60
G31/32
L:1/8
M:2/4
K:C clef=F4
V:11
%%MIDI program 60
G,31/32
L:1/8
M:2/4
K:C clef=F4
V:12
%%MIDI program 60
C31/32
L:1/8
M:2/4
K:C clef=G2
V:13
%%MIDI program 56
g31/32
L:1/8
M:2/4
K:C clef=F4
V:14
%%MIDI program 56
C31/32
L:1/8
M:2/4
K:C clef=F4
V:15
%%MIDI program 57
E31/32
L:1/8
M:2/4
K:C clef=F4
V:16
%%MIDI program 57
E,31/32
L:1/8
M:2/4
K:C clef=F4
V:17
%%MIDI program 58
E,31/32
L:1/8
M:2/4
K:C clef=F4
V:18
%%MIDI program 58
E,,31/32
L:1/8
M:2/4
K:C clef=F4
V:19
%%MIDI program 48
D,,31/128D,,31/128D,,31/128D,,31/128D,,31/128
L:1/8
M:2/4
K:C clef=F4
V:20
%%MIDI program 48
B,,,2
Q:1/4=63
L:1/8
M:2/4
K:C clef=G2
V:1
%%MIDI program 73
f'15/16
L:1/8
M:2/4
K:C clef=G2
V:2
%%MIDI program 68
f31/32
L:1/8
M:2/4
K:C clef=G2
V:3
%%MIDI program 71
f31/32
L:1/8
M:2/4
K:C clef=G2
V:4
%%MIDI program 71
f31/32
L:1/8
M:2/4
K:C clef=G2
V:5
%%MIDI program 71
A31/32
L:1/8
M:2/4
K:C clef=F4
V:6
%%MIDI program 71
C31/32
L:1/8
M:2/4
K:C clef=F4
V:7
%%MIDI program 70
F,31/32
L:1/8
M:2/4
K:C clef=G2
V:8
%%MIDI program 65
F31/32
L:1/8
M:2/4
K:C clef=G2
V:9
%%MIDI program 66
F31/32
L:1/8
M:2/4
K:C clef=G2
V:10
%%MIDI program 60
F31/32
L:1/8
M:2/4
K:C clef=F4
V:11
%%MIDI program 60
A,31/32
L:1/8
M:2/4
K:C clef=F4
V:12
%%MIDI program 60
C31/32
L:1/8
M:2/4
K:C clef=G2
V:13
%%MIDI program 56
f31/32
L:1/8
M:2/4
K:C clef=F4
V:14
%%MIDI program 56
C31/32
L:1/8
M:2/4
K:C clef=G2
V:15
%%MIDI program 57
F31/32
L:1/8
M:2/4
K:C clef=F4
V:16
%%MIDI program 57
F,31/32
L:1/8
M:2/4
K:C clef=F4
V:17
%%MIDI program 58
F,31/32
L:1/8
M:2/4
K:C clef=F4
V:18
%%MIDI program 58
F,,31/32
L:1/8
M:2/4
K:C clef=F4
V:19
%%MIDI program 48
z15/64D,,31/128D,,31/128D,,31/128D,,31/128
Q:1/4=62
L:1/8
M:2/4
K:C clef=G2
V:1
%%MIDI program 73
e'15/16
L:1/8
M:2/4
K:C clef=G2
V:2
%%MIDI program 68
e31/32
L:1/8
M:2/4
K:C clef=G2
V:3
%%MIDI program 71
e31/32
L:1/8
M:2/4
K:C clef=G2
V:4
%%MIDI program 71
e31/32
L:1/8
M:2/4
K:C clef=G2
V:5
%%MIDI program 71
G31/32
L:1/8
M:2/4
K:C clef=F4
V:6
%%MIDI program 71
C31/32
L:1/8
M:2/4
K:C clef=F4
V:7
%%MIDI program 70
G,31/32
L:1/8
M:2/4
K:C clef=F4
V:8
%%MIDI program 65
E31/32
L:1/8
M:2/4
K:C clef=F4
V:9
%%MIDI program 66
E31/32
L:1/8
M:2/4
K:C clef=F4
V:10
%%MIDI program 60
E31/32
L:1/8
M:2/4
K:C clef=F4
V:11
%%MIDI program 60
G,31/32
L:1/8
M:2/4
K:C clef=F4
V:12
%%MIDI program 60
C31/32
L:1/8
M:2/4
K:C clef=G2
V:13
%%MIDI program 56
e31/32
L:1/8
M:2/4
K:C clef=F4
V:14
%%MIDI program 56
C31/32
L:1/8
M:2/4
K:C clef=G2
V:15
%%MIDI program 57
G31/32
L:1/8
M:2/4
K:C clef=F4
V:16
%%MIDI program 57
G,31/32
L:1/8
M:2/4
K:C clef=F4
V:17
%%MIDI program 58
G,31/32
L:1/8
M:2/4
K:C clef=F4
V:18
%%MIDI program 58
G,,31/32
L:1/8
M:2/4
K:C clef=F4
V:19
%%MIDI program 48
z15/64D,,31/128D,,31/128D,,31/128D,,31/128
Q:1/4=60
L:1/8
M:2/4
K:C clef=G2
V:1
%%MIDI program 73
d'15/16
L:1/8
M:2/4
K:C clef=G2
V:2
%%MIDI program 68
d31/32
L:1/8
M:2/4
K:C clef=G2
V:3
%%MIDI program 71
d31/32
L:1/8
M:2/4
K:C clef=G2
V:4
%%MIDI program 71
d31/32
L:1/8
M:2/4
K:C clef=G2
V:5
%%MIDI program 71
G31/32
L:1/8
M:2/4
K:C clef=F4
V:6
%%MIDI program 71
^A,31/32
L:1/8
M:2/4
K:C clef=F4
V:7
%%MIDI program 70
G,,31/32
L:1/8
M:2/4
K:C clef=F4
V:8
%%MIDI program 65
D31/32
L:1/8
M:2/4
K:C clef=F4
V:9
%%MIDI program 66
D31/32
L:1/8
M:2/4
K:C clef=G2
V:10
%%MIDI program 60
F31/32
L:1/8
M:2/4
K:C clef=F4
V:11
%%MIDI program 60
A,31/32
L:1/8
M:2/4
K:C clef=F4
V:12
%%MIDI program 60
B,31/32
L:1/8
M:2/4
K:C clef=G2
V:13
%%MIDI program 56
d31/32
L:1/8
M:2/4
K:C clef=F4
V:14
%%MIDI program 56
^A,31/32
L:1/8
M:2/4
K:C clef=F4
V:15
%%MIDI program 57
G,31/32
L:1/8
M:2/4
K:C clef=F4
V:16
%%MIDI program 57
G,31/32
L:1/8
M:2/4
K:C clef=F4
V:17
%%MIDI program 58
G,,31/32
L:1/8
M:2/4
K:C clef=F4
V:18
%%MIDI program 58
G,,31/32
L:1/8
M:2/4
K:C clef=F4
V:19
%%MIDI program 48
z7/32D,,31/128D,,31/128D,,31/128
Q:1/4=58
L:1/8
M:2/4
K:C clef=G2
V:1
%%MIDI program 73
c'31/32
L:1/8
M:2/4
K:C clef=G2
V:2
%%MIDI program 68
c31/32
L:1/8
M:2/4
K:C clef=G2
V:3
%%MIDI program 71
c31/32
L:1/8
M:2/4
K:C clef=G2
V:4
%%MIDI program 71
c31/32
L:1/8
M:2/4
K:C clef=G2
V:5
%%MIDI program 71
G31/32
L:1/8
M:2/4
K:C clef=F4
V:6
%%MIDI program 71
^A,2
L:1/8
M:2/4
K:C clef=F4
V:7
%%MIDI program 70
C,31/32
L:1/8
M:2/4
K:C clef=F4
V:8
%%MIDI program 65
C31/32
L:1/8
M:2/4
K:C clef=F4
V:9
%%MIDI program 66
C31/32
L:1/8
M:2/4
K:C clef=F4
V:10
%%MIDI program 60
E31/32
L:1/8
M:2/4
K:C clef=F4
V:11
%%MIDI program 60
G,31/32
L:1/8
M:2/4
K:C clef=F4
V:12
%%MIDI program 60
C2
L:1/8
M:2/4
K:C clef=G2
V:13
%%MIDI program 56
c31/32
L:1/8
M:2/4
K:C clef=F4
V:14
%%MIDI program 56
C2
L:1/8
M:2/4
K:C clef=F4
V:15
%%MIDI program 57
C31/32
L:1/8
M:2/4
K:C clef=F4
V:16
%%MIDI program 57
C31/32
L:1/8
M:2/4
K:C clef=F4
V:17
%%MIDI program 58
C,31/32
L:1/8
M:2/4
K:C clef=F4
V:18
%%MIDI program 58
C,31/32
L:1/8
M:2/4
K:C clef=F4
V:19
%%MIDI program 48
D,,31/32
L:1/8
M:2/4
K:C clef=F4
V:20
%%MIDI program 48
B,,,2
Q:1/4=57
L:1/8
M:2/4
K:C clef=G2
V:1
%%MIDI program 73
f'15/16
L:1/8
M:2/4
K:C clef=G2
V:2
%%MIDI program 68
f31/32
L:1/8
M:2/4
K:C clef=G2
V:3
%%MIDI program 71
f31/32
L:1/8
M:2/4
K:C clef=G2
V:4
%%MIDI program 71
f31/32
L:1/8
M:2/4
K:C clef=G2
V:5
%%MIDI program 71
A31/32
L:1/8
M:2/4
K:C clef=F4
V:6
%%MIDI program 70
A,,31/32
L:1/8
M:2/4
K:C clef=G2
V:7
%%MIDI program 65
F31/32
L:1/8
M:2/4
K:C clef=G2
V:8
%%MIDI program 66
F31/32
L:1/8
M:2/4
K:C clef=G2
V:9
%%MIDI program 60
F31/32
L:1/8
M:2/4
K:C clef=F4
V:10
%%MIDI program 60
A,31/32
L:1/8
M:2/4
K:C clef=G2
V:11
%%MIDI program 56
f31/32
L:1/8
M:2/4
K:C clef=F4
V:12
%%MIDI program 57
A,31/32
L:1/8
M:2/4
K:C clef=F4
V:13
%%MIDI program 57
A,31/32
L:1/8
M:2/4
K:C clef=F4
V:14
%%MIDI program 58
A,31/32
L:1/8
M:2/4
K:C clef=F4
V:15
%%MIDI program 58
A,,31/32
L:1/8
M:2/4
K:C clef=F4
V:16
%%MIDI program 48
D,,31/32
Q:1/4=55
L:1/8
M:2/4
K:C clef=G2
V:1
%%MIDI program 73
e'15/16
L:1/8
M:2/4
K:C clef=G2
V:2
%%MIDI program 68
e31/32
L:1/8
M:2/4
K:C clef=G2
V:3
%%MIDI program 71
e31/32
L:1/8
M:2/4
K:C clef=G2
V:4
%%MIDI program 71
e31/32
L:1/8
M:2/4
K:C clef=G2
V:5
%%MIDI program 71
G31/32
L:1/8
M:2/4
K:C clef=F4
V:6
%%MIDI program 71
^A,31/32
L:1/8
M:2/4
K:C clef=F4
V:7
%%MIDI program 70
G,,31/32
L:1/8
M:2/4
K:C clef=F4
V:8
%%MIDI program 65
E31/32
L:1/8
M:2/4
K:C clef=F4
V:9
%%MIDI program 66
E31/32
L:1/8
M:2/4
K:C clef=F4
V:10
%%MIDI program 60
E31/32
L:1/8
M:2/4
K:C clef=F4
V:11
%%MIDI program 60
G,31/32
L:1/8
M:2/4
K:C clef=F4
V:12
%%MIDI program 60
C31/32
L:1/8
M:2/4
K:C clef=G2
V:13
%%MIDI program 56
e31/32
L:1/8
M:2/4
K:C clef=F4
V:14
%%MIDI program 56
C31/32
L:1/8
M:2/4
K:C clef=F4
V:15
%%MIDI program 57
G,31/32
L:1/8
M:2/4
K:C clef=F4
V:16
%%MIDI program 57
G,31/32
L:1/8
M:2/4
K:C clef=F4
V:17
%%MIDI program 58
G,31/32
L:1/8
M:2/4
K:C clef=F4
V:18
%%MIDI program 58
G,,31/32
L:1/8
M:2/4
K:C clef=F4
V:19
%%MIDI program 48
D,,31/32
L:1/8
M:2/4
K:C clef=F4
V:20
%%MIDI program 48
B,,,2
Q:1/4=53
L:1/8
M:2/4
K:C clef=G2
V:1
%%MIDI program 73
d'15/16
L:1/8
M:2/4
K:C clef=G2
V:2
%%MIDI program 68
d31/32
L:1/8
M:2/4
K:C clef=G2
V:3
%%MIDI program 71
d31/32
L:1/8
M:2/4
K:C clef=G2
V:4
%%MIDI program 71
d31/32
L:1/8
M:2/4
K:C clef=G2
V:5
%%MIDI program 71
F31/32
L:1/8
M:2/4
K:C clef=F4
V:6
%%MIDI program 71
^A,31/32
L:1/8
M:2/4
K:C clef=F4
V:7
%%MIDI program 70
F,,31/32
L:1/8
M:2/4
K:C clef=F4
V:8
%%MIDI program 65
D31/32
L:1/8
M:2/4
K:C clef=F4
V:9
%%MIDI program 66
D31/32
L:1/8
M:2/4
K:C clef=G2
V:10
%%MIDI program 60
F31/32
L:1/8
M:2/4
K:C clef=F4
V:11
%%MIDI program 60
A,31/32
L:1/8
M:2/4
K:C clef=F4
V:12
%%MIDI program 60
C31/32
L:1/8
M:2/4
K:C clef=G2
V:13
%%MIDI program 56
d31/32
L:1/8
M:2/4
K:C clef=F4
V:14
%%MIDI program 56
C31/32
L:1/8
M:2/4
K:C clef=F4
V:15
%%MIDI program 57
F,31/32
L:1/8
M:2/4
K:C clef=F4
V:16
%%MIDI program 57
F,31/32
L:1/8
M:2/4
K:C clef=F4
V:17
%%MIDI program 58
F,31/32
L:1/8
M:2/4
K:C clef=F4
V:18
%%MIDI program 58
F,,31/32
L:1/8
M:2/4
K:C clef=F4
V:19
%%MIDI program 48
D,,31/32
Q:1/4=52
L:1/8
M:2/4
K:C clef=G2
V:1
%%MIDI program 73
e'31/16
L:1/8
M:2/4
K:C clef=G2
V:2
%%MIDI program 68
e31/16
L:1/8
M:2/4
K:C clef=G2
V:3
%%MIDI program 71
e31/16
L:1/8
M:2/4
K:C clef=G2
V:4
%%MIDI program 71
e31/16
L:1/8
M:2/4
K:C clef=G2
V:5
%%MIDI program 71
G31/16
L:1/8
M:2/4
K:C clef=F4
V:6
%%MIDI program 71
C31/16
L:1/8
M:2/4
K:C clef=F4
V:7
%%MIDI program 70
G,,31/16
L:1/8
M:2/4
K:C clef=F4
V:8
%%MIDI program 65
E31/16
L:1/8
M:2/4
K:C clef=F4
V:9
%%MIDI program 66
E31/16
L:1/8
M:2/4
K:C clef=F4
V:10
%%MIDI program 60
E31/16
L:1/8
M:2/4
K:C clef=F4
V:11
%%MIDI program 60
G,31/16
L:1/8
M:2/4
K:C clef=F4
V:12
%%MIDI program 60
C31/16
L:1/8
M:2/4
K:C clef=G2
V:13
%%MIDI program 56
e31/16
L:1/8
M:2/4
K:C clef=F4
V:14
%%MIDI program 56
C31/16
L:1/8
M:2/4
K:C clef=F4
V:15
%%MIDI program 57
G,31/16
L:1/8
M:2/4
K:C clef=F4
V:16
%%MIDI program 57
G,31/16
L:1/8
M:2/4
K:C clef=F4
V:17
%%MIDI program 58
G,31/16
L:1/8
M:2/4
K:C clef=F4
V:18
%%MIDI program 58
G,,31/16
L:1/8
M:2/4
K:C clef=F4
V:19
%%MIDI program 48
D,,31/128D,,31/128D,,31/128D,,31/128D,,31/128D,,31/128D,,31/128D,,31/128D,,/4
L:1/8
M:2/4
K:C clef=F4
V:20
%%MIDI program 48
B,,,31/16
Q:1/4=48
L:1/8
M:2/4
K:C clef=G2
V:1
%%MIDI program 73
d'31/16
L:1/8
M:2/4
K:C clef=G2
V:2
%%MIDI program 68
d31/16
L:1/8
M:2/4
K:C clef=G2
V:3
%%MIDI program 71
d31/16
L:1/8
M:2/4
K:C clef=G2
V:4
%%MIDI program 71
d31/16
L:1/8
M:2/4
K:C clef=G2
V:5
%%MIDI program 71
F31/16
L:1/8
M:2/4
K:C clef=F4
V:6
%%MIDI program 71
B,31/16
L:1/8
M:2/4
K:C clef=F4
V:7
%%MIDI program 70
G,,31/16
L:1/8
M:2/4
K:C clef=F4
V:8
%%MIDI program 65
D31/16
L:1/8
M:2/4
K:C clef=F4
V:9
%%MIDI program 66
D31/16
L:1/8
M:2/4
K:C clef=G2
V:10
%%MIDI program 60
G31/16
L:1/8
M:2/4
K:C clef=F4
V:11
%%MIDI program 60
G,31/16
L:1/8
M:2/4
K:C clef=F4
V:12
%%MIDI program 60
B,31/16
L:1/8
M:2/4
K:C clef=G2
V:13
%%MIDI program 56
d31/16
L:1/8
M:2/4
K:C clef=F4
V:14
%%MIDI program 56
B,31/16
L:1/8
M:2/4
K:C clef=F4
V:15
%%MIDI program 57
G,31/16
L:1/8
M:2/4
K:C clef=F4
V:16
%%MIDI program 57
G,31/16
L:1/8
M:2/4
K:C clef=F4
V:17
%%MIDI program 58
G,31/16
L:1/8
M:2/4
K:C clef=F4
V:18
%%MIDI program 58
G,,31/16
L:1/8
M:2/4
K:C clef=F4
V:19
%%MIDI program 48
z15/64D,,31/128D,,31/128D,,31/128D,,31/128D,,31/128D,,31/128D,,2-D,,/4-|D,,4-D,,3/8
L:1/8
M:2/4
K:C clef=F4
V:20
%%MIDI program 48
B,,,31/16
Q:1/4=30
L:1/8
M:2/4
K:C clef=G2
V:1
%%MIDI program 73
c'62/16
L:1/8
M:2/4
K:C clef=G2
V:2
%%MIDI program 68
c62/16
L:1/8
M:2/4
K:C clef=G2
V:3
%%MIDI program 71
c62/16
L:1/8
M:2/4
K:C clef=G2
V:4
%%MIDI program 71
c62/16
L:1/8
M:2/4
K:C clef=F4
V:5
%%MIDI program 71
E62/16
L:1/8
M:2/4
K:C clef=F4
V:6
%%MIDI program 71
C62/16
L:1/8
M:2/4
K:C clef=F4
V:7
%%MIDI program 70
C,62/16
L:1/8
M:2/4
K:C clef=F4
V:8
%%MIDI program 65
C62/16
L:1/8
M:2/4
K:C clef=F4
V:9
%%MIDI program 66
C62/16
L:1/8
M:2/4
K:C clef=F4
V:10
%%MIDI program 60
E62/16
L:1/8
M:2/4
K:C clef=F4
V:11
%%MIDI program 60
G,62/16
L:1/8
M:2/4
K:C clef=F4
V:12
%%MIDI program 60
C62/16
L:1/8
M:2/4
K:C clef=G2
V:13
%%MIDI program 56
c62/16
L:1/8
M:2/4
K:C clef=F4
V:14
%%MIDI program 56
C62/16
L:1/8
M:2/4
K:C clef=F4
V:15
%%MIDI program 57
C,62/16
L:1/8
M:2/4
K:C clef=F4
V:16
%%MIDI program 57
C,62/16
L:1/8
M:2/4
K:C clef=F4
V:17
%%MIDI program 58
C,62/16
L:1/8
M:2/4
K:C clef=F4
V:18
%%MIDI program 58
C,,62/16
L:1/8
M:2/4
K:C clef=F4
V:19
%%MIDI program 48
B,,,62/16
Q:1/4=45


